X:1
T:Title
%%score { ( 1 3 ) | ( 2 4 ) }
L:1/8
Q:1/4=88
M:4/4
K:Eb
V:1 treble nm="Grand Piano"
V:3 treble 
V:2 bass 
V:4 bass 
V:1
 [EG]2 [FB][FB] [Ge][Ge] [FB]2 | z4 =G4[K:bass] | G2 [FB][FB] [Ge][Ge] [FB]2 | z4 =G4 | %4
w: Wm.~D.~Armstrong * * * * *||||
 [Ge]2 [Fd][Ec] [DB]2 [DF]2 | [CEA]2 [B,DG][A,DF] E4 | F2 GG AB c2 | [DB]2 DD E4 |] %8
w: ||||
V:2
 [E,B,]2 [D,B,][D,B,] [C,B,]2 [D,A,]2 | E,2 z D [B,E]4 | %2
 [E,B,E]2 [D,B,][D,B,] [C,B,][C,B,] [D,B,]2 | [E,B,E]2 [B,D][B,D] [B,E]4 | %4
 [C,B,]2 [F,B,][F,=A,] [B,,B,]2 [B,,B,]2 | B,,2 B,,=B,, [C,G,C]4 | %6
 [A,CE]2 [G,CE][G,CE] CB, [F,A,E]2 | [B,,A,]2 [B,,A,B,][B,,A,B,] [E,G,B,]4 |] %8
V:3
 x8 | [B,EG]2 [D_G]G z2[K:bass] B,,2 | x8 | G2 _GG z2 D,2 | x8 | x8 | x8 | x8 |] %8
V:4
 x8 | z2 B,2 E,2 z2 | x8 | z4 E,2 z2 | x8 | x8 | z4 [F,E]2 z2 | x8 |] %8

